X:71
T:Salarza. RH.071
R:Country Dance
S:Rev.R.Harrison’s MS,c1815,Cumbria
O:England
A:Temple Sowerby,Cumbria
Z:vmp.Simon Wilson. Review PJH, 2008.
M:C|
L:1/8
Q:1/2=90
K:G
c2|BGBd g2gd|B2Bd A2Ac|\
BGBd g2gd|BGBd G2:|!
zd|dcAc cBAG|FdAd GdBd|\
dcAc cBAG|D2f2 “min in MS”g2||!
zd|dcAc cBAG|FdAd GdBd|\
GgBg dgBg|a2ag fedc||!
M:6/8
B2G AGF|GAB Ddc|B2G AGF|GBd gec|!
B2G AGF|GAB Ddc|BAG AGF|GGG G2d|!
e2e edc|d2d dcB|c2c cdc|BBB B2d|!
e2e edc|d2d dcB|c2d B2d|BAA A2B|!
cAF DEF|G2B d2B|c2e d2g|gfe d2B|!
cAF DEF|G2B d2B|c2e d2g|fed cB” D.C.”A|]

